X: 677
T: Sheng ge
%%abc-version 2.0
%%abcx-abcm2ps-target-version 5.9.1 (29 Sep 2008)
%%abc-creator hum2abc beta
%%abcx-conversion-date 2013/10/02 07:52:30
%%abc-edited-by Helmut Schaffrath
%%humdrum-veritas 1183025709
%%humdrum-veritas-data 376611835
%%continueall 1
%%barnumbers 0
L: 1/8
M: 2/4
K: D
e4- [I:setbarnb 1]| 
e4 | 
e d/ e/ d B/ A/ | 
A4 | 
e3d | 
d2B A | 
d> e B A | 
A2z2 | 
e2d2 | 
d2B A | 
d e B A | 
A2z2 | 
e e e c/ d/ | 
e e e/ d/ z | 
d2z2 | 
d e B A | 
A2z2 | 
d2B A | 
A2z2 | 
d e B A | 
A2z2 | 
e> e e d | 
d2B A | 
d> B B A | 
A2z2 |]  



